src/components/Chapters/ChapterSeven/assets/tekstballon.svg

<svg width="643" height="425" viewBox="0 0 643 425" fill="none" xmlns="http://www.w3.org/2000/svg">
<path fill-rule="evenodd" clip-rule="evenodd" d="M135.107 81.0074L6.50391 10.8594L72.8883 83.8222L82.1052 418.641L642.744 424.543L633.432 86.253L135.107 81.0074Z" fill="#CBBEBD"/>
<path d="M59.7461 72.9219L620.385 78.8235L629.698 417.113L69.0585 411.212L59.7461 72.9219Z" fill="#FFF1F0"/>
<path d="M0.0898438 0.400146L197.382 83.4961H93.9274L0.0898438 0.400146Z" fill="#FFF1F0"/>
</svg>

<svg width="643" height="425" fill="none" xmlns="http://www.w3.org/2000/svg"><path fill-rule="evenodd" clip-rule="evenodd" d="M135.107 81.007L6.504 10.86l66.384 72.963 9.217 334.819 560.639 5.902-9.312-338.29-498.325-5.246z" fill="#CBBEBD"/><path d="M59.746 72.922l560.639 5.901 9.313 338.29-560.64-5.901-9.312-338.29z" fill="#FFF1F0"/><path d="M.09.4l197.292 83.096H93.927L.09.4z" fill="#FFF1F0"/></svg>
